frontend/public/svg/hand gestures/page-move.svg

<svg width="140" height="140" viewBox="0 0 140 140" fill="none" xmlns="http://www.w3.org/2000/svg">
<g clip-path="url(#clip0)">
<path d="M137.221 62.6022C135.357 57.5484 130.827 54.8102 125.384 55.4481C123.656 55.7339 121.974 56.247 120.381 56.9742C119.716 57.24 119.033 57.5149 118.337 57.7617C117.582 55.9351 116.404 54.3144 114.898 53.0334C113.393 51.7524 111.605 50.8481 109.681 50.395C105.092 49.1939 101.335 50.2086 98.5014 53.4141C93.7869 46.8029 89.549 46.0159 82.618 50.4882C82.5281 49.1716 82.4467 47.8812 82.366 46.6105C82.1632 43.3945 81.9722 40.3589 81.6703 37.3017C80.8827 29.3082 80.1856 23.2279 79.4184 17.5886C78.8756 13.9645 77.45 10.5295 75.267 7.58601C72.5931 3.84489 68.8724 3.04348 64.7932 5.32032C63.6155 5.96096 62.5841 6.83995 61.7647 7.90112C60.9454 8.96235 60.356 10.1825 60.0342 11.484C59.6047 13.0178 59.327 14.5901 59.2051 16.1782C59.1342 17.3091 59.0569 18.4406 58.9801 19.5728C58.6952 23.7517 58.4017 28.073 58.4279 32.3274C58.4791 40.5415 58.6735 48.8907 58.8618 56.9656C58.9424 60.4179 59.0192 63.8703 59.0923 67.3226C59.1021 67.7938 59.1 68.2651 59.0967 68.8506V69.2089L58.9307 69.0639C58.5238 68.7101 58.2016 68.4298 57.8623 68.1706C51.3987 63.2218 44.2878 61.4025 36.7281 62.7618C35.0483 63.0089 33.4627 63.692 32.1292 64.7429C30.7958 65.794 29.761 67.1762 29.1283 68.7514C28.5165 70.4409 28.3513 72.2596 28.6485 74.031C28.9457 75.8031 29.6953 77.4683 30.8248 78.8656C31.5196 79.7202 32.2925 80.5078 33.1332 81.2186C33.7457 81.7502 34.3298 82.3134 34.883 82.906C35.773 83.8978 36.7044 84.8869 37.6049 85.8445C40.1246 88.3727 42.4238 91.1116 44.4775 94.031C46.5651 97.3382 48.4639 100.76 50.1647 104.282C51.1138 106.155 52.095 108.089 53.1182 109.962L53.7188 111.057C56.0692 115.342 58.4975 119.774 61.1773 123.953C62.6484 126.109 64.4614 128.012 66.5443 129.584C70.3078 132.484 74.4794 134.812 78.9242 136.491C83.8959 138.505 89.2109 139.539 94.5752 139.536C100.432 139.481 106.232 138.376 111.699 136.274C115.497 134.86 118.919 132.436 122.383 129.865C128.405 125.395 132.504 118.826 135.278 109.19C138.657 97.4879 140.106 85.3128 139.567 73.1443C139.328 69.5312 138.537 65.9758 137.221 62.6022ZM35.5436 69.9703C36.2485 67.8437 38.2546 67.4952 40.2033 67.4952C40.309 67.4952 40.4147 67.4952 40.519 67.4952C47.6777 67.6186 53.0146 70.2774 56.3817 75.3962C57.0123 76.4936 57.4766 77.6783 57.7597 78.9122C57.8627 79.2725 57.9658 79.6342 58.0747 79.984C58.5191 81.4148 59.245 82.9008 61.2599 83.078C62.887 83.225 64.2937 81.9865 64.8346 79.9315C65.0622 79.0343 65.165 78.1095 65.1403 77.1841C65.009 69.904 64.8417 61.9761 64.6337 52.9481C64.589 51.0205 64.518 49.0928 64.4478 47.1651C64.3067 43.3256 64.161 39.3547 64.2378 35.4594C64.354 29.4729 64.7549 23.3873 65.1428 17.5026L65.3089 14.9731C65.4664 12.5597 66.0804 9.99215 69.4125 9.1796C71.5876 10.8579 72.897 13.2234 73.4129 16.404C74.2858 21.7919 74.8687 26.6914 75.1935 31.3815C75.6162 37.4697 75.9385 43.6682 76.2516 49.6632C76.4412 53.3124 76.6316 56.963 76.8423 60.6116C76.9735 62.8825 77.9889 64.2162 79.6967 64.3658C81.9617 64.5719 82.7815 62.8727 83.4476 61.5141C83.7181 60.9608 83.9812 60.3982 84.2431 59.8358C85.034 57.9691 86.0198 56.1915 87.1855 54.5326C88.1569 53.2593 89.417 52.637 90.6299 52.8261C91.9216 53.023 92.9987 54.0817 93.5881 55.7225C94.0127 57.1268 94.2529 58.5803 94.3022 60.0465C94.3251 60.3379 94.3481 60.628 94.3737 60.9155C94.4131 61.5817 94.3986 62.2501 94.3297 62.914C94.2969 63.3583 94.2641 63.8027 94.2595 64.2451C94.2214 64.5961 94.2549 64.9512 94.3573 65.2889C94.4603 65.6267 94.631 65.9403 94.8587 66.2101C95.0858 66.4799 95.3661 66.701 95.6818 66.8599C95.9968 67.0181 96.3414 67.1113 96.6939 67.1329C97.0378 67.2064 97.3929 67.2097 97.7381 67.1441C98.0833 67.0784 98.4122 66.9439 98.7049 66.7496C98.9976 66.5547 99.2483 66.304 99.4433 66.0106C99.6375 65.7179 99.7714 65.3892 99.8371 65.0438C99.9027 64.7964 99.9683 64.5476 100.034 64.2982C100.134 63.9044 100.235 63.5047 100.357 63.1169C100.478 62.729 100.586 62.3503 100.697 61.965C100.96 60.959 101.297 59.9736 101.704 59.0166L101.801 58.806C102.754 56.7195 103.644 54.7511 106.308 54.9001C108.505 55.0248 111.373 55.859 112.563 59.1249C113.109 60.8701 113.439 62.6752 113.548 64.5003L113.627 65.2761C113.665 65.6253 113.677 65.983 113.693 66.3394C113.747 67.8772 113.809 69.6211 115.96 70.3746C117.844 71.0355 118.86 69.9808 120.559 67.2091C121.469 65.571 122.582 64.0536 123.871 62.6929C124.33 62.1931 124.899 61.8056 125.532 61.5602C126.165 61.3149 126.846 61.2183 127.523 61.2778C128.199 61.4121 128.836 61.6996 129.384 62.1185C129.932 62.5373 130.376 63.0762 130.684 63.6937C132.92 67.4237 134.004 71.7325 133.797 76.0775C133.331 83.4882 132.495 90.7519 131.532 98.7993C130.79 104.998 128.316 110.548 125.99 115.165C122.48 122.13 116.527 126.873 107.789 129.664C95.1062 133.714 82.6515 131.531 70.7757 123.174C69.5044 122.324 68.3958 121.254 67.4999 120.015C65.4644 117.075 63.5854 114.03 61.8711 110.892C59.3587 106.232 56.8566 101.287 54.4348 96.2008C50.1686 87.2352 44.8608 80.3831 38.2173 75.2479C38.1411 75.1908 38.069 75.1284 38.002 75.0608C37.7939 74.841 37.5767 74.625 37.3587 74.4084C36.0881 73.1423 34.8866 71.9504 35.5436 69.9703Z" fill="black"/>
<path d="M38.1259 43.284C38.4804 42.9503 38.765 42.5493 38.9626 42.1043C39.1603 41.6594 39.2673 41.1796 39.2774 40.6928C39.2878 40.3514 39.229 40.0114 39.1049 39.6932C38.9809 39.3749 38.794 39.0849 38.5553 38.8406C37.4323 37.7471 36.0856 37.7426 34.4382 38.8288C33.6381 39.3539 32.8872 39.959 32.0176 40.656C31.7432 40.8759 31.4569 41.1056 31.151 41.3471L30.1665 27.7216H43.5561C43.348 28.0688 43.1397 28.4022 42.9376 28.7264C42.2557 29.7156 41.7043 30.7886 41.2967 31.9188C40.9607 33.0103 41.1149 34.7838 41.8723 35.5845C42.8805 36.6485 44.4944 36.523 45.9862 35.2655C46.5302 34.8134 47.0035 34.2825 47.3903 33.6904L48.136 32.5227C49.3214 30.6679 50.5467 28.7501 51.6231 26.7863C53.3729 23.5919 52.9476 21.573 50.0538 19.3355C49.0036 18.525 47.8917 17.7728 46.8147 17.0449C45.8807 16.4142 44.9112 15.7618 44.0015 15.0759C42.9114 14.2588 41.3107 13.3596 39.9908 14.9801C39.0135 16.1785 39.1985 17.7157 40.4856 19.092C41.0569 19.6783 41.6583 20.2346 42.2873 20.7585C42.4481 20.8983 42.6153 21.0427 42.7879 21.1949C41.8487 21.252 40.932 21.3217 40.0315 21.3919C36.4873 21.6603 33.132 21.9169 29.6009 21.3183V18.8091C29.6009 15.7834 29.601 12.8621 29.6096 9.94137C29.6207 9.67233 29.6554 9.40481 29.7137 9.14195C29.7169 9.12226 29.7209 9.10257 29.7249 9.08288C30.1187 9.29028 30.5066 9.50096 30.8867 9.70837C32.0711 10.3989 33.3113 10.9891 34.5942 11.4726C35.4862 11.7804 37.2092 11.432 37.6404 10.7015C38.0716 9.97097 37.9028 8.90245 37.7551 7.96454C37.7269 7.78864 37.6996 7.61537 37.676 7.44866C37.5172 6.92576 37.1687 6.481 36.6991 6.20157C36.09 5.76379 35.4849 5.32016 34.8798 4.87648C33.067 3.54805 31.1933 2.1743 29.24 0.990926C26.7912 -0.492395 24.1054 -0.298812 22.2302 1.49496C19.678 4.02001 17.3057 6.72072 15.1307 9.57716C14.5577 10.305 14.6993 12.0331 15.2197 12.7446C15.368 12.9532 15.5572 13.1296 15.7755 13.2632C15.9938 13.3967 16.2366 13.4847 16.4898 13.5218C17.2998 13.5934 18.1055 13.3437 18.7332 12.8266C19.4794 12.2355 20.1815 11.5907 20.8336 10.8971C21.0403 10.687 21.2469 10.4777 21.4556 10.2722C22.0772 9.65986 22.6877 9.037 23.4188 8.2914L24.0095 7.6921V21.5671L10.2847 22.3547C10.5584 22.0358 10.8189 21.7384 11.0657 21.4569C11.8542 20.613 12.57 19.7037 13.2049 18.739C13.6243 18.0551 13.7956 16.3584 13.2187 15.9574C12.4619 15.4323 11.2871 15.4612 10.3472 15.5471C9.777 15.695 9.27385 16.032 8.91982 16.5028L8.80286 16.6229C8.31061 17.1235 7.8175 17.6231 7.32353 18.122C5.55536 19.9098 3.72681 21.7587 2.0177 23.6634C0.508127 25.3443 0.552781 27.2228 2.13981 28.9529C3.36781 30.2918 4.72164 31.5473 6.03169 32.7596L6.74987 33.4258C7.17321 33.9117 7.74439 34.2452 8.37565 34.3749L8.75475 34.4005C9.8469 34.4799 11.0857 34.5685 11.6718 33.9516C12.5211 33.0583 11.9704 30.8491 11.9041 30.6003C11.6562 29.9032 11.27 29.2634 10.7687 28.7192C10.617 28.5223 10.4534 28.3163 10.2834 28.0892H24.3175L24.9264 43.8084L23.8762 43.0543C22.8818 42.3383 22.0387 41.7325 21.1992 41.1234C20.8507 40.8707 20.5092 40.5983 20.1679 40.3278C19.3794 39.6443 18.5075 39.063 17.5734 38.5977C16.7293 38.2223 15.0793 38.3707 14.5496 39.0382C14.02 39.7057 14.2926 41.0393 14.6083 42.0501C14.8668 42.6128 15.2824 43.0887 15.8053 43.4206C15.9037 43.498 16.0022 43.5741 16.0915 43.6502C19.2511 46.2756 21.8962 48.45 24.4152 50.4945C25.2079 51.1841 26.2159 51.5762 27.2662 51.6031C28.3119 51.5788 29.3149 51.1833 30.0957 50.4873C32.8569 48.1914 35.5622 45.767 38.1259 43.284Z" fill="black"/>
</g>
<defs>
<clipPath id="clip0">
<rect width="139.144" height="139.8" fill="white" transform="translate(0.777344)"/>
</clipPath>
</defs>
</svg>

<svg xmlns="http://www.w3.org/2000/svg" width="140" height="140" fill="none" viewBox="0 0 140 140"><g fill="#000" clip-path="url(#a)"><path d="M137.221 62.602c-1.864-5.054-6.394-7.792-11.837-7.154a20 20 0 0 0-5.003 1.526c-.665.266-1.348.54-2.044.788a12.45 12.45 0 0 0-8.656-7.367c-4.589-1.201-8.346-.186-11.18 3.02-4.714-6.612-8.952-7.4-15.883-2.927-.09-1.316-.171-2.607-.252-3.877-.203-3.216-.394-6.252-.696-9.31-.787-7.993-1.484-14.073-2.252-19.712a22.35 22.35 0 0 0-4.151-10.003c-2.674-3.741-6.395-4.543-10.474-2.266a9.66 9.66 0 0 0-4.759 6.164 24.3 24.3 0 0 0-.829 4.694c-.07 1.131-.148 2.263-.225 3.395-.285 4.179-.578 8.5-.552 12.754.051 8.215.245 16.564.434 24.639q.12 5.178.23 10.357c.01.47.008.942.005 1.528v.358l-.166-.145c-.407-.354-.73-.634-1.069-.893-6.463-4.95-13.574-6.769-21.134-5.41a9.71 9.71 0 0 0-7.6 5.99 10.44 10.44 0 0 0 1.697 10.115 17.7 17.7 0 0 0 2.308 2.353 23 23 0 0 1 1.75 1.687c.89.992 1.821 1.98 2.722 2.938a62.7 62.7 0 0 1 6.873 8.187 104 104 0 0 1 5.687 10.251c.949 1.873 1.93 3.807 2.953 5.68l.6 1.095c2.351 4.285 4.78 8.717 7.46 12.896a24 24 0 0 0 5.366 5.631 48.2 48.2 0 0 0 12.38 6.907 41.6 41.6 0 0 0 15.651 3.045 49 49 0 0 0 17.124-3.262c3.798-1.414 7.22-3.838 10.684-6.409 6.022-4.47 10.121-11.039 12.895-20.675a112 112 0 0 0 4.289-36.046 35.5 35.5 0 0 0-2.346-10.542M35.544 69.97c.705-2.126 2.71-2.475 4.66-2.475h.315c7.159.124 12.496 2.782 15.863 7.901a12.8 12.8 0 0 1 1.378 3.516c.103.36.206.722.315 1.072.444 1.43 1.17 2.917 3.185 3.094 1.627.147 3.034-1.091 3.575-3.147.227-.897.33-1.822.305-2.747-.131-7.28-.298-15.208-.506-24.236-.045-1.928-.116-3.855-.186-5.783-.141-3.84-.287-7.81-.21-11.706.116-5.986.517-12.072.905-17.956l.166-2.53c.157-2.413.771-4.98 4.103-5.793 2.176 1.678 3.485 4.043 4 7.224.874 5.388 1.457 10.287 1.781 14.978.423 6.088.746 12.286 1.059 18.281.19 3.65.38 7.3.59 10.949.132 2.27 1.147 3.604 2.855 3.754 2.265.206 3.084-1.493 3.75-2.852.271-.553.534-1.116.796-1.678a28.7 28.7 0 0 1 2.943-5.303c.97-1.274 2.231-1.896 3.444-1.707 1.292.197 2.369 1.256 2.958 2.896a17 17 0 0 1 .714 4.325q.034.436.072.869.06 1-.044 1.998c-.033.444-.066.889-.07 1.331a2.61 2.61 0 0 0 2.434 2.888 2.64 2.64 0 0 0 3.143-2.09l.197-.745c.1-.394.201-.793.323-1.181.121-.388.229-.767.34-1.152a21 21 0 0 1 1.007-2.948l.097-.211c.953-2.087 1.843-4.055 4.507-3.906 2.197.125 5.065.959 6.255 4.225.546 1.745.876 3.55.985 5.375l.079.776c.038.35.05.707.066 1.063.054 1.538.116 3.282 2.267 4.036 1.884.66 2.9-.394 4.599-3.166a22.4 22.4 0 0 1 3.312-4.516 4.43 4.43 0 0 1 3.652-1.415 4.51 4.51 0 0 1 3.161 2.416 22.05 22.05 0 0 1 3.113 12.383c-.466 7.411-1.302 14.675-2.265 22.722-.742 6.199-3.216 11.749-5.542 16.366-3.51 6.965-9.463 11.708-18.201 14.499-12.683 4.05-25.138 1.867-37.013-6.49a12.9 12.9 0 0 1-3.276-3.159 102 102 0 0 1-5.629-9.123 331 331 0 0 1-7.436-14.691c-4.266-8.966-9.574-15.818-16.218-20.953a2 2 0 0 1-.215-.187q-.314-.329-.643-.653c-1.27-1.266-2.472-2.458-1.815-4.438"/><path d="M38.126 43.284a3.66 3.66 0 0 0 1.151-2.591 2.54 2.54 0 0 0-.722-1.852c-1.123-1.094-2.47-1.098-4.117-.012-.8.525-1.55 1.13-2.42 1.827-.275.22-.561.45-.867.691l-.985-13.625h13.39q-.313.52-.618 1.004a14 14 0 0 0-1.641 3.193c-.336 1.091-.182 2.865.575 3.665 1.008 1.064 2.622.939 4.114-.319a7.1 7.1 0 0 0 1.404-1.575l.746-1.167c1.185-1.855 2.41-3.773 3.487-5.737 1.75-3.194 1.325-5.213-1.57-7.45-1.05-.811-2.161-1.563-3.238-2.291-.934-.63-1.904-1.283-2.813-1.97-1.09-.816-2.691-1.715-4.011-.095-.977 1.198-.792 2.736.495 4.112a24 24 0 0 0 1.801 1.667q.242.209.5.436c-.938.057-1.855.127-2.755.197-3.545.268-6.9.525-10.431-.074V18.81c0-3.026 0-5.947.009-8.868a4.6 4.6 0 0 1 .104-.8l.01-.058q.593.313 1.163.625a24.6 24.6 0 0 0 3.707 1.765c.892.307 2.615-.041 3.046-.772.432-.73.263-1.799.115-2.736q-.042-.266-.079-.516a2.2 2.2 0 0 0-.977-1.247q-.912-.659-1.82-1.326C33.068 3.548 31.194 2.174 29.24.991c-2.449-1.483-5.135-1.29-7.01.504a77 77 0 0 0-7.1 8.082c-.572.728-.43 2.456.09 3.168a1.9 1.9 0 0 0 1.27.777 3.1 3.1 0 0 0 2.243-.695 19.5 19.5 0 0 0 2.1-1.93q.31-.316.623-.625c.621-.612 1.232-1.235 1.963-1.98l.59-.6v13.875l-13.724.788q.41-.478.78-.898a20.4 20.4 0 0 0 2.14-2.718c.42-.684.59-2.38.014-2.782-.757-.525-1.932-.496-2.872-.41a2.6 2.6 0 0 0-1.427.956l-.117.12q-.738.75-1.48 1.499c-1.768 1.788-3.596 3.637-5.305 5.541-1.51 1.681-1.465 3.56.122 5.29 1.228 1.339 2.582 2.594 3.892 3.807l.718.666c.423.486.994.82 1.626.949l.379.026c1.092.079 2.33.167 2.917-.45.85-.893.298-3.102.232-3.35a5.5 5.5 0 0 0-1.135-1.882c-.152-.197-.316-.403-.486-.63h14.035l.608 15.72-1.05-.755c-.994-.716-1.837-1.322-2.677-1.93-.348-.253-.69-.526-1.031-.796a12.4 12.4 0 0 0-2.595-1.73c-.844-.376-2.494-.227-3.023.44-.53.668-.257 2.001.058 3.012a3.2 3.2 0 0 0 1.197 1.37q.15.117.287.23a922 922 0 0 0 8.323 6.845 4.52 4.52 0 0 0 2.851 1.108 4.4 4.4 0 0 0 2.83-1.116 143 143 0 0 0 8.03-7.203"/></g><defs><clipPath id="a"><path fill="#fff" d="M.777 0h139.144v139.8H.777z"/></clipPath></defs></svg>
